X:59
T:Bostony
C:John Hartford solo
A:Wild Hog in the Redbrush
N:Transcribed by Mike Stangeland
R:bluegrass
L:1/8
Q:1/4=223
M:4/4
K:G
de |: "G"gf gb a2 f2 | ge ga g2 dc | Bc de ge ga |
 "D7"b2 a2 a4 | c'4 e4 | fe fg f2 fe | BA Bc dB Ac |1 B2 "G"G2 G2 de :|2 B2 "G"G2 G2 GE |]
|: "G"DE GA BA Bd | e2 d2 d2 B2 | "D7"cB AG FD EF | 
|"G"A2 G2 G2 GE | DE GA BA Bd | e2 d2 d2 B2 | "D7"cB AG FD EF | |1 "G"A2 G2 G2 GE :|2 "G"A2 G2 G4 | 

